X: 153
T: Rufty Tufty
M:2/4s
L:1/8
Q:160
S:Playford
O:Manuscript
A:English
K:G
d2 d e|f2 e f|g g f>e|d4:|
|:e/2f/2|g f e d|d c B>c|d d c B|A2 G:|
|:B>cd d|e c d2| B>c d d|e c d B/2c/2|d d c B|A2 G3:|

